X:1
T:Bourrée d'Aurore Sand
B:On Bouge tune book vol 1
M:2/4
R:Bourrée
L:1/8
K:Dm
"Dm"D>E FG|A3 A|Ad ^cd|A3 A|"Bb"B>A GE|"C"F>E DE/F/|"Am"GA FE|"Dm"D4:|
"Dm"A>G FG|A>G FG|"Bb"A>G AB|A>G FG|"F"A>G FG|"C"A>G FG|"Am"AG FE|"Dm"D4:|
